X:1
T:Title
%%score { ( 1 3 ) | ( 2 4 ) }
L:1/8
Q:1/4=120
M:6/4
K:Ab
V:1 treble nm="Grand Piano"
V:3 treble 
V:2 bass 
V:4 bass 
V:1
 [Ec]2 [DB]2 [CA]2 [CA]2 [DB]2 [Ec]2 | [CE]4 [DF]2 [CE]6 | F2 F2 F2 [=DB]4 [DA]2 | G4 A2 B6 | %4
w: J.~R.~Sweney * * * * *||||
 c2 c2 c2 e4 d2 | c4 [EA]2 [FB]2 [FA]2 F2 | E4 c2 c4 B2 |[M:4/4] [A,CA]8 |[M:2/4] G2 A2 | %9
w: |||||
[M:6/4] [GB]6 z6 | d2 c2 c2 c6 | c2 B2 B2 B6 | z6 [CA]6 | F2 =E2 F2 [Fd]4 [DF]2 | %14
w: |||||
 [CE]2 [_C=D]2 [=CE]2 [Ec]4 [EA]2 | B4 F2 G4 B2 | [CA]12 |] %17
w: |||
V:2
 [A,,A,]2 [A,,E,]2 [A,,E,]2 [A,,E,]2 [A,,E,]2 [A,,A,]2 | [A,,A,]4 [A,,A,]2 [A,,A,]6 | %2
 [D,A,D]2 [D,A,D]2 [D,A,D]2 [B,,A,]4 [B,,B,]2 | [E,B,E]4 [F,B,=D]2 [G,B,E]6 | %4
 [A,E]2 [A,E]2 [A,E]2 [A,CE]4 [A,B,E]2 | [A,E]4 [C,A,]2 [D,A,]2 [D,A,]2 [D,A,D]2 | %6
 [E,A,C]4 [E,A,E]2 [E,A,E]4 [E,G,D]2 |[M:4/4] A,,8 |[M:2/4][K:treble] E2 F2 | %9
[M:6/4][K:bass] E,2 E,2 E,2 [E,B,]4[K:treble] [G,B,F]2 | [A,F]2 [A,E]2 [A,E]2 [A,E]6 | %11
 [E,A,E]2 [E,G,D]2 [E,G,D]2 [E,G,D]6 | [A,,E,]2 [A,,E,]2 [A,,E,]2 .[A,,E,]6 | %13
 [D,A,D]2 [D,G,D]2 [D,A,D]2 [D,A,]4 [D,A,]2 | [A,,A,]2 [A,,A,]2 [A,,A,]2 [A,,G,]4 [C,A,]2 | %15
 F,4 B,2 [E,B,D]4 [E,G,D]2 | [A,,E,]12 |] %17
V:3
 x12 | x12 | x12 | x12 | x12 | x12 | x12 |[M:4/4] x8 |[M:2/4] x4 |[M:6/4] E2 E2 E2 [Ge]4 d2 | x12 | %11
 x12 | [DB]2 [CA]2 [CA]2 z4 A,2 | x12 | x12 | x12 | x12 |] %17
V:4
 x12 | x12 | x12 | x12 | x12 | x12 | x12 |[M:4/4] x8 |[M:2/4][K:treble] x4 | %9
[M:6/4][K:bass] x10[K:treble] x2 | x12 | x12 | x12 | x12 | x12 | [D,D]6 z6 | x12 |] %17

